X: 1
T: Volare
C: English words: Mitchell Parish
C: music: Domenico Modugno
%R: _
Z: 2017 John Chambers <jc:trillian.mit.edu>
F: https://www.scribd.com/doc/133873397/Volare-Lead-Sheet
M: C|
L: 1/4
K: C
"A7"e2 |\
"Dm7"d2 A2- | A2 "A7"e2 |\
"Dm7"d4- | d2 "G7"d2 |\
"C6"c2 "Cmaj7"G2- | "C6"G2 "G7"(3GBd |
"Am"c4- | c2 zc |\
"Dm7"A>c "G9"(3Bcd !coda!| "C"cz zc |\
"Dm7"A/Ac/ "G9"(3Bcd | "C"cz zA/B/ |
"Am"(3cAB (3cAB | "Am7"(3cAB "Am6"(3cd>c |\
"Em"(3BGA "B7"(3BGA | "Em7"B3 B/c/ |\
"E7"(3dBc "Dm"(3eB>c | "E7"(3dBc (3dcB |
"Am"c4- | c2 zA/B/ |\
"Em"(3c_A_B "C+"(3cAB | "Fm7"(3c_A_B "Bb7"(3cBA |\
"Eb"G4- | "G7"Gz :|
!coda!|\
"C"cz zc | "Dm"A>c "G9"(3Bcd |\
"C"cz zc | "Dm7"A>c "G9"(3Bcd | "C"c3 z |]
